X:1
T:Title
%%score { ( 1 3 ) | ( 2 4 ) }
L:1/8
M:4/4
K:G
V:1 treble nm="Grand Piano"
V:3 treble 
V:2 bass 
V:4 bass 
V:1
 z4 z2[Q:1/4=80] D2 | B2 B2 B2 [=FB]2 | [EB]3 [EA] [EA]2 G2 | G2 F2 E2 D2 |[M:3/4] d6 |[M:1/4] c2 | %6
[M:4/4] B2 B2 B2 [=FB]2 | [EB]3 [EA] [EA]2 [Ge]2 | [FA]2 [Ad]2 [Gd]2 ^c2 |[M:3/4] [Fd]6 | %10
[M:1/4] [ce]2 |[M:4/4] [Ac]2 [GB]2 A2 [Fd]2 | [B,FB]2 [B,FA]2 [B,G]2 [A,A]B | %13
 [Ec]2 [EB]2 [EA]2 [EG]2 |[M:3/4] G2 F2 E2 |[M:1/4] D2 |[M:4/4] B2 B2 B2 [=FB]2 | %17
 [EB]3 [EA] [Ge]2 [Ge]2 | [Gd]2 [Ec]B .[CGA]2 .[CEA]2 |[M:3/4] [B,DG]6 |] %20
V:2
 z4 z2 D,2 | [G,D]2 [F,A,^D]2 [E,G,E]2 [D,G,]2 | [C,C]3 [C,C] [C,C]2 [E,A,^C]2 | %3
 [D,A,C]2 [D,A,C]2 [E,G,C]2 [F,A,]2 |[M:3/4][K:treble] z2 D4 |[M:1/4] [A,DF]2 | %6
[M:4/4] [G,DG]2[K:bass] [F,A,^D]2 [E,G,E]2 [D,G,]2 | [C,C]3 [C,C] [C,C]2 [^C,_B,]2 | %8
 [D,D]2 [F,D]2 [E,A,]2 [A,G]2 |[M:3/4] [D,A,]6 |[M:1/4] [D,D]2 | %11
[M:4/4] [D,D]2 [D,D]2 [CF]2 [D,C]2 | ^D,2 D,2 E,2 C,[B,,^G,] | %13
 [A,,A,]2 [B,,^G,]2 [C,A,]2 [^C,A,]2 |[M:3/4] C6 |[M:1/4] [F,A,]2 | %16
[M:4/4] [G,D]2 [F,A,^D]2 [E,G,E]2 [D,G,]2 | [C,C]3 [C,C] [^C,_B,]2 [C,B,]2 | [D,B,]2 z D z F z D | %19
[M:3/4] G,,6 |] %20
V:3
 x8 | x8 | x8 | x8 |[M:3/4] z2 A2 G2 |[M:1/4] x2 |[M:4/4] x8 | x8 | x8 |[M:3/4] x6 |[M:1/4] x2 | %11
[M:4/4] x8 | z4 z2 E2 | x8 |[M:3/4] x6 |[M:1/4] x2 |[M:4/4] x8 | x8 | z2 F2 z4 |[M:3/4] x6 |] %20
V:4
 x8 | x8 | x8 | x8 |[M:3/4][K:treble] [G,B,D]2 C2 B,2 |[M:1/4] x2 |[M:4/4] x2[K:bass] x6 | x8 | %8
 x8 |[M:3/4] x6 |[M:1/4] x2 |[M:4/4] x8 | x8 | x8 |[M:3/4] [D,A,]4 [E,G,]2 |[M:1/4] x2 | %16
[M:4/4] x8 | x8 | z2 D,2 D,2 D,2 |[M:3/4] x6 |] %20

